packages/ui-icons/svg/Solid/text-centered.svg

<svg viewBox="0 0 1920 1920" xmlns="http://www.w3.org/2000/svg">
    <path d="M1664 1600.128v256H256v-256h1408ZM1920 1216v256.128H0V1216h1920Zm-128-383.872v256H128v-256h1664Zm128-384v256H0v-256h1920ZM1664 64v256.128H256V64h1408Z" fill-rule="evenodd"/>
</svg>

<svg viewBox="0 0 1920 1920" version="1.1" xmlns="http://www.w3.org/2000/svg">
    <path d="M1664,1600.128 L1664,1856.128 L256,1856.128 L256,1600.128 L1664,1600.128 Z M1920,1216 L1920,1472.128 L0,1472.128 L0,1216 L1920,1216 Z M1792,832.128 L1792,1088.128 L128,1088.128 L128,832.128 L1792,832.128 Z M1920,448.128 L1920,704.128 L0,704.128 L0,448.128 L1920,448.128 Z M1664,64 L1664,320.128 L256,320.128 L256,64 L1664,64 Z" stroke="none" stroke-width="1" fill-rule="evenodd"/>
</svg>
